dist/img/svg/benefits-01.svg

<svg width="20" height="20" viewBox="0 0 20 20" fill="none" xmlns="http://www.w3.org/2000/svg">
<path d="M11.8906 20C10.4871 20 9.38902 19.987 8.59632 19.9609C7.81661 19.9349 7.21233 19.8763 6.78349 19.7852C6.36764 19.707 6.10124 19.6354 5.98428 19.5703C5.88032 19.5182 5.70489 19.4076 5.45798 19.2383C5.26305 19.082 4.90568 18.9518 4.38588 18.8477C3.87906 18.7565 3.02788 18.6719 1.83232 18.5938C1.6244 18.5807 1.46196 18.5026 1.345 18.3594C1.31901 18.3203 1.26703 18.2357 1.18906 18.1055C1.11109 17.9753 1.00063 17.7604 0.857682 17.4609C0.714735 17.1484 0.578286 16.8099 0.448334 16.4453C0.331377 16.0807 0.227416 15.625 0.136449 15.0781C0.0454831 14.5312 0 13.9779 0 13.418C0 11.5169 0.318382 10.0586 0.955146 9.04297C1.0851 8.84766 1.26703 8.75 1.50094 8.75C2.59254 8.75 3.7881 8.08594 5.08762 6.75781C6.40013 5.42969 7.53071 3.6263 8.47936 1.34766C8.50535 1.30859 8.54434 1.21745 8.59632 1.07422C8.66129 0.93099 8.70028 0.839844 8.71327 0.800781C8.72627 0.761719 8.75876 0.690104 8.81074 0.585938C8.87571 0.46875 8.92769 0.397135 8.96668 0.371094C9.01866 0.332031 9.08364 0.279948 9.16161 0.214844C9.23958 0.14974 9.31755 0.110677 9.39552 0.0976562C9.48649 0.0716146 9.59045 0.0520833 9.7074 0.0390625C9.83736 0.0130208 9.9803 0 10.1362 0C10.3702 0 10.6106 0.0520833 10.8575 0.15625C11.1044 0.260417 11.3318 0.403646 11.5397 0.585938C11.7476 0.755208 11.9166 0.950521 12.0465 1.17188C12.2934 1.57552 12.4364 2.15495 12.4754 2.91016C12.5144 3.66536 12.4884 4.36849 12.3974 5.01953C12.3194 5.67057 12.209 6.29557 12.066 6.89453C14.3792 6.88151 15.9516 6.875 16.7833 6.875C17.55 6.875 18.1673 7.08333 18.6351 7.5C19.1159 7.91667 19.3628 8.46354 19.3758 9.14062C19.3888 9.71354 19.3303 10.1497 19.2004 10.4492C19.4213 10.6706 19.6032 10.9049 19.7462 11.1523C19.9021 11.3867 19.9866 11.6536 19.9996 11.9531C20.0126 12.5651 19.7137 13.1901 19.1029 13.8281C19.1159 13.8542 19.1419 13.9193 19.1809 14.0234C19.2199 14.1146 19.2459 14.1927 19.2589 14.2578C19.2849 14.3229 19.3043 14.4076 19.3173 14.5117C19.3303 14.6029 19.3368 14.694 19.3368 14.7852C19.3108 15.5013 18.895 16.1393 18.0893 16.6992C18.1543 17.1289 18.1478 17.513 18.0698 17.8516C17.7579 19.2839 15.6982 20 11.8906 20ZM2.1637 17.3242C4.29491 17.4935 5.64641 17.793 6.2182 18.2227C6.42612 18.3789 6.60805 18.4831 6.76399 18.5352C6.91994 18.5872 7.38776 18.6393 8.16747 18.6914C8.94719 18.7305 10.1882 18.75 11.8906 18.75C12.4234 18.75 12.9042 18.737 13.3331 18.7109C13.7749 18.6849 14.2817 18.6393 14.8535 18.5742C15.4253 18.5091 15.8866 18.3919 16.2375 18.2227C16.5884 18.0534 16.7963 17.8385 16.8613 17.5781C16.9132 17.3047 16.7898 17.0117 16.4909 16.6992C16.4259 16.543 16.4259 16.3867 16.4909 16.2305C16.5559 16.0612 16.6598 15.944 16.8028 15.8789H16.8223C16.8872 15.8529 16.9652 15.8203 17.0562 15.7812C17.1472 15.7422 17.2771 15.6706 17.446 15.5664C17.628 15.4622 17.7774 15.3385 17.8944 15.1953C18.0113 15.0391 18.0763 14.8893 18.0893 14.7461C18.0893 14.694 18.0828 14.6484 18.0698 14.6094C18.0698 14.5573 18.0633 14.5117 18.0503 14.4727C18.0503 14.4336 18.0373 14.3945 18.0113 14.3555C17.9983 14.3164 17.9853 14.2839 17.9723 14.2578C17.9593 14.2318 17.9399 14.2057 17.9139 14.1797C17.9009 14.1536 17.8879 14.1341 17.8749 14.1211C17.8619 14.0951 17.8489 14.0755 17.8359 14.0625C17.8229 14.0495 17.8099 14.0365 17.7969 14.0234C17.7969 14.0104 17.7969 14.0039 17.7969 14.0039C17.7449 13.9388 17.7124 13.8672 17.6994 13.7891C17.6864 13.7109 17.6864 13.6328 17.6994 13.5547C17.7124 13.4766 17.7384 13.4049 17.7774 13.3398C17.8294 13.2617 17.8879 13.1966 17.9529 13.1445C18.0308 13.1055 18.1153 13.0534 18.2063 12.9883C18.2972 12.9102 18.4077 12.7734 18.5376 12.5781C18.6806 12.3828 18.7521 12.1875 18.7521 11.9922C18.7391 11.6667 18.4922 11.3607 18.0113 11.0742C17.9334 11.0221 17.8684 10.9635 17.8164 10.8984C17.7644 10.8203 17.7254 10.7357 17.6994 10.6445C17.6864 10.5924 17.68 10.5404 17.68 10.4883C17.6929 10.4232 17.7059 10.3646 17.7189 10.3125C17.7449 10.2474 17.7774 10.1888 17.8164 10.1367C17.8294 10.1237 17.8424 10.1107 17.8554 10.0977C17.8684 10.0716 17.8944 10.0195 17.9334 9.94141C17.9723 9.86328 18.0048 9.79167 18.0308 9.72656C18.0568 9.64844 18.0763 9.55729 18.0893 9.45312C18.1153 9.34896 18.1283 9.2513 18.1283 9.16016C18.1153 8.92578 18.0503 8.73047 17.9334 8.57422C17.8294 8.41797 17.6864 8.3138 17.5045 8.26172C17.3356 8.19662 17.1991 8.15755 17.0952 8.14453C16.9912 8.13151 16.8872 8.125 16.7833 8.125C16.3155 8.125 15.6137 8.125 14.6781 8.125C13.7424 8.125 12.9237 8.125 12.222 8.125L11.1694 8.14453C11.1174 8.14453 11.0654 8.13802 11.0134 8.125C10.9614 8.11198 10.9095 8.09245 10.8575 8.06641C10.8185 8.04037 10.7795 8.01432 10.7405 7.98828C10.7015 7.94922 10.669 7.90365 10.6431 7.85156C10.5261 7.68229 10.5066 7.48698 10.5846 7.26562C10.7925 6.66667 10.9549 6.00911 11.0719 5.29297C11.2019 4.57682 11.2603 3.89323 11.2473 3.24219C11.2473 2.59115 11.1564 2.11589 10.9744 1.81641C10.9614 1.79036 10.9354 1.74479 10.8965 1.67969C10.8575 1.61458 10.8315 1.56901 10.8185 1.54297C10.8055 1.51693 10.773 1.48438 10.721 1.44531C10.682 1.39323 10.6366 1.36068 10.5846 1.34766C10.5456 1.32161 10.4871 1.30208 10.4091 1.28906C10.3312 1.26302 10.2402 1.25 10.1362 1.25C10.0973 1.25 10.0583 1.26302 10.0193 1.28906C9.9803 1.3151 9.92183 1.3737 9.84385 1.46484C9.76588 1.55599 9.69441 1.67969 9.62943 1.83594C8.6288 4.25781 7.42025 6.19141 6.00378 7.63672C4.5873 9.06901 3.21631 9.85026 1.8908 9.98047C1.78684 10.2148 1.69587 10.4492 1.6179 10.6836C1.53993 10.918 1.45546 11.2891 1.36449 11.7969C1.28652 12.3047 1.24754 12.8451 1.24754 13.418C1.24754 14.0039 1.30602 14.5898 1.42297 15.1758C1.53993 15.7487 1.65689 16.2044 1.77384 16.543C1.90379 16.8685 2.03375 17.1289 2.1637 17.3242Z" fill="#C78E66"/>
</svg>

<svg width="20" height="20" viewBox="0 0 20 20" fill="none" xmlns="http://www.w3.org/2000/svg"><path d="M11.89 20c-1.403 0-2.501-.013-3.294-.04-.78-.025-1.384-.084-1.813-.175-.415-.078-.682-.15-.799-.215a5.376 5.376 0 0 1-.526-.332c-.195-.156-.552-.286-1.072-.39-.507-.091-1.358-.176-2.554-.254a.65.65 0 0 1-.487-.235 8.136 8.136 0 0 1-.156-.254 8.62 8.62 0 0 1-.331-.644 12.67 12.67 0 0 1-.41-1.016 9.878 9.878 0 0 1-.312-1.367A10.1 10.1 0 0 1 0 13.418c0-1.901.318-3.36.955-4.375a.62.62 0 0 1 .546-.293c1.092 0 2.287-.664 3.587-1.992C6.4 5.43 7.53 3.626 8.479 1.348c.026-.04.065-.13.117-.274.065-.143.104-.234.117-.273.013-.04.046-.11.098-.215.065-.117.117-.189.156-.215.052-.039.117-.091.195-.156a.497.497 0 0 1 .234-.117c.09-.026.194-.046.311-.059.13-.026.273-.039.43-.039.233 0 .474.052.72.156.247.104.475.248.683.43.208.17.377.365.507.586.246.404.39.983.428 1.738.04.755.013 1.458-.078 2.11a16.548 16.548 0 0 1-.331 1.875c2.313-.013 3.886-.02 4.717-.02.767 0 1.384.208 1.852.625.48.417.728.964.74 1.64.014.574-.045 1.01-.175 1.31.221.22.403.455.546.702.156.235.24.502.254.801.013.612-.286 1.237-.897 1.875.013.026.039.091.078.195.039.092.065.17.078.235.026.065.045.15.058.254.013.09.02.182.02.273-.026.716-.442 1.354-1.248 1.914.065.43.059.814-.02 1.153C17.759 19.284 15.7 20 11.892 20zm-9.726-2.676c2.13.17 3.482.469 4.054.899.208.156.39.26.546.312.156.052.624.104 1.403.156.78.04 2.021.059 3.724.059.532 0 1.013-.013 1.442-.04.442-.025.949-.07 1.52-.136.572-.065 1.034-.182 1.385-.351.35-.17.558-.384.623-.645.052-.273-.071-.566-.37-.879a.588.588 0 0 1 0-.469.6.6 0 0 1 .312-.351h.02l.233-.098c.091-.039.221-.11.39-.215.182-.104.331-.228.448-.37a.898.898 0 0 0 .195-.45.433.433 0 0 0-.02-.137.433.433 0 0 0-.019-.136.21.21 0 0 0-.039-.118.76.76 0 0 0-.039-.097.305.305 0 0 0-.058-.078.226.226 0 0 0-.04-.059.228.228 0 0 0-.038-.059l-.04-.039v-.02a.461.461 0 0 1-.097-.214.71.71 0 0 1 0-.234.609.609 0 0 1 .078-.215.854.854 0 0 1 .176-.195 1.92 1.92 0 0 0 .253-.157c.091-.078.202-.215.332-.41a.988.988 0 0 0 .214-.586c-.013-.325-.26-.631-.74-.918a.855.855 0 0 1-.196-.176.9.9 0 0 1-.117-.253.643.643 0 0 1-.019-.157 3.78 3.78 0 0 1 .039-.175.765.765 0 0 1 .097-.176l.04-.04.077-.156c.04-.078.072-.15.098-.214a1.46 1.46 0 0 0 .058-.274c.026-.104.04-.202.04-.293a1.052 1.052 0 0 0-.196-.586.746.746 0 0 0-.428-.312 1.85 1.85 0 0 0-.41-.117 2.509 2.509 0 0 0-.312-.02h-4.561l-1.053.02a.64.64 0 0 1-.156-.02.76.76 0 0 1-.155-.059l-.117-.078a.519.519 0 0 1-.098-.136c-.117-.17-.136-.365-.058-.586.207-.6.37-1.257.487-1.973.13-.716.188-1.4.175-2.05 0-.652-.09-1.127-.273-1.427a2.474 2.474 0 0 0-.078-.136 2.436 2.436 0 0 1-.078-.137.335.335 0 0 0-.097-.098.245.245 0 0 0-.136-.097.458.458 0 0 0-.176-.059.862.862 0 0 0-.273-.039.21.21 0 0 0-.117.04 1.066 1.066 0 0 0-.175.175c-.078.091-.15.215-.215.37-1 2.423-2.209 4.356-3.625 5.802C4.587 9.069 3.216 9.85 1.89 9.98a7.822 7.822 0 0 0-.273.704c-.078.234-.163.605-.254 1.113a10.687 10.687 0 0 0-.116 1.621c0 .586.058 1.172.175 1.758.117.573.234 1.028.35 1.367.13.326.26.586.39.781z" fill="#C78E66"/></svg>
